X: 32
T:Paddy O'Brien's March
R:March
Z:added by Alf 
M:2/4
L:1/8
K:G
Bc | dG Bd  | gd cB  | Ae cA | E2 A>G | FD  FA  | d^c ed | dc A_B | B2 B>c |
|  dG Bd  | g2 f>g | ag ec | A2 f>e | d^c =cA | FD EF | A2 G>F | G2 :|
Bc| d2 g>f | gd Bc  | dB (3cBA | G2 AB  | ce  a^g | ab ag | f2 d>^c | d2 B>c |
|  dB gd  | BG dB  | Ae cA | E2 f>e | d^c =cA | (3FED EF | A2 G>F | G2 Bc :|
